img/cat-feed.svg

<svg width="71" height="108" viewBox="0 0 71 108" fill="none" xmlns="http://www.w3.org/2000/svg">
<path d="M70.4381 33.0674L63.8728 18.1571V1.58525C63.8728 0.428888 62.6267 -0.350525 61.6001 0.167537L55.6019 3.19491L49.6036 0.167537C49.1616 -0.0558456 48.6408 -0.0558456 48.1988 0.167537L42.2006 3.19491L36.2025 0.167537C35.7605 -0.0558456 35.2397 -0.0558456 34.7977 0.167537L28.7995 3.19491L22.8012 0.167537C22.3592 -0.0558456 21.8386 -0.0558456 21.3966 0.167537L15.3984 3.19491L9.40011 0.167537C8.37358 -0.350525 7.12741 0.429099 7.12741 1.58525V18.1569L0.561971 33.0672C0.472944 33.2686 0.426758 33.4907 0.426758 33.711V106.415C0.426758 107.29 1.12999 108 1.99727 108H69.003C69.8705 108 70.5735 107.29 70.5735 106.415V33.711C70.5733 33.4893 70.5275 33.2701 70.4381 33.0674ZM10.2682 4.15003L14.696 6.3847C15.138 6.60808 15.6586 6.60808 16.1006 6.3847L22.0988 3.35754L28.0971 6.3847C28.5391 6.60808 29.0597 6.60808 29.5017 6.3847L35.4999 3.35754L41.4982 6.3847C41.9402 6.60808 42.461 6.60808 42.903 6.3847L48.901 3.35754L54.8993 6.3847C55.3413 6.60808 55.8621 6.60808 56.3041 6.3847L60.7316 4.15003V16.9081H10.2682V4.15003ZM3.56758 80.9472H38.2995L44.7121 86.1253L38.2995 91.3033H3.56758V80.9472ZM43.8758 35.2957H54.0314V104.83H3.56758V94.4737H38.8503C39.2069 94.4737 39.5529 94.3512 39.8315 94.1263L48.2072 87.363C48.9806 86.7382 48.9806 85.5123 48.2072 84.8875L39.8315 78.1242C39.5529 77.8996 39.2071 77.7768 38.8503 77.7768H3.56758V35.2957H36.5469C37.4144 35.2957 38.1174 34.5861 38.1174 33.7105C38.1174 32.8349 37.4144 32.1254 36.5469 32.1254H4.41396L9.7186 20.0783H59.886L54.5816 32.1254H43.8758C43.0083 32.1254 42.3053 32.8349 42.3053 33.7105C42.3053 34.5861 43.0083 35.2957 43.8758 35.2957ZM67.4325 104.83H57.1722V34.0474L62.3023 22.3963L67.4325 34.0474V104.83Z" fill="#A07B50"/>
<path d="M28.7995 50.7241C21.6989 50.7241 15.9219 56.5551 15.9219 63.7221C15.9219 70.273 20.7361 74.1839 28.7995 74.1839C36.8632 74.1839 41.6771 70.273 41.6771 63.7221C41.6771 56.5551 35.9002 50.7241 28.7995 50.7241ZM28.7995 71.0138C25.1632 71.0138 19.0627 70.0664 19.0627 63.7221C19.0627 58.3029 23.4307 53.8943 28.7995 53.8943C34.1685 53.8943 38.5363 58.3029 38.5363 63.7221C38.5363 70.0667 32.4358 71.0138 28.7995 71.0138Z" fill="#A07B50"/>
<path d="M22.5176 38.0432C19.3076 38.0432 17.1781 42.0504 17.1781 44.7008C17.1781 47.6727 19.5734 50.0902 22.5176 50.0902C25.462 50.0902 27.8572 47.6727 27.8572 44.7008C27.8572 42.0504 25.7276 38.0432 22.5176 38.0432ZM22.5176 46.9198C21.3053 46.9198 20.3189 45.9244 20.3189 44.7006C20.3189 43.2015 21.5724 41.2134 22.5176 41.2134C23.4628 41.2134 24.7163 43.2012 24.7163 44.7006C24.7163 45.9244 23.7299 46.9198 22.5176 46.9198Z" fill="#A07B50"/>
<path d="M35.0811 38.0432C31.8713 38.0432 29.7416 42.0504 29.7416 44.7008C29.7416 47.6727 32.1369 50.0902 35.0811 50.0902C38.0255 50.0902 40.4206 47.6727 40.4206 44.7008C40.4206 42.0504 38.2909 38.0432 35.0811 38.0432ZM35.0811 46.9198C33.8688 46.9198 32.8824 45.9244 32.8824 44.7006C32.8824 43.2015 34.1361 41.2134 35.0811 41.2134C36.0263 41.2134 37.2798 43.2012 37.2798 44.7006C37.2798 45.9244 36.2936 46.9198 35.0811 46.9198Z" fill="#A07B50"/>
<path d="M45.132 45.6516C41.9222 45.6516 39.7924 49.6588 39.7924 52.3092C39.7924 55.2811 42.1876 57.6987 45.132 57.6987C48.0763 57.6987 50.4715 55.2811 50.4715 52.3092C50.4715 49.659 48.3418 45.6516 45.132 45.6516ZM45.132 54.5285C43.9197 54.5285 42.9332 53.5331 42.9332 52.3092C42.9332 50.8099 44.1867 48.822 45.132 48.822C46.0772 48.822 47.3307 50.8099 47.3307 52.3092C47.3307 53.5331 46.3445 54.5285 45.132 54.5285Z" fill="#A07B50"/>
<path d="M12.4668 45.6516C9.25677 45.6516 7.12722 49.6588 7.12722 52.3092C7.12722 55.2811 9.52239 57.6987 12.4668 57.6987C15.4111 57.6987 17.8063 55.2811 17.8063 52.3092C17.8063 49.659 15.6768 45.6516 12.4668 45.6516ZM12.4668 54.5285C11.2544 54.5285 10.268 53.5331 10.268 52.3092C10.268 50.8099 11.5215 48.822 12.4668 48.822C13.412 48.822 14.6655 50.8099 14.6655 52.3092C14.6655 53.5331 13.6791 54.5285 12.4668 54.5285Z" fill="#A07B50"/>
<path d="M15.3984 98.0667H8.69773C7.83045 98.0667 7.12722 98.7763 7.12722 99.6519C7.12722 100.527 7.83045 101.237 8.69773 101.237H15.3984C16.2657 101.237 16.9689 100.527 16.9689 99.6519C16.9687 98.776 16.2657 98.0667 15.3984 98.0667Z" fill="#A07B50"/>
<path d="M37.1751 98.0667H22.0988C21.2315 98.0667 20.5283 98.7763 20.5283 99.6519C20.5283 100.527 21.2315 101.237 22.0988 101.237H37.1751C38.0426 101.237 38.7456 100.527 38.7456 99.6519C38.7456 98.776 38.0426 98.0667 37.1751 98.0667Z" fill="#A07B50"/>
<path d="M20.4237 84.5403H8.69762C7.83034 84.5403 7.12711 85.2499 7.12711 86.1255C7.12711 87.0011 7.83034 87.7107 8.69762 87.7107H20.4237C21.291 87.7107 21.9942 87.0011 21.9942 86.1255C21.9942 85.2497 21.2912 84.5403 20.4237 84.5403Z" fill="#A07B50"/>
<path d="M35.5 84.5403H27.1243C26.2571 84.5403 25.5538 85.2499 25.5538 86.1255C25.5538 87.0011 26.2571 87.7107 27.1243 87.7107H35.5C36.3675 87.7107 37.0705 87.0011 37.0705 86.1255C37.0705 85.2497 36.3677 84.5403 35.5 84.5403Z" fill="#A07B50"/>
</svg>

<svg width="71" height="108" fill="none" xmlns="http://www.w3.org/2000/svg"><path d="M70.438 33.067l-6.565-14.91V1.585C63.873.43 62.627-.35 61.6.168l-5.998 3.027L49.604.168a1.556 1.556 0 00-1.405 0L42.2 3.195 36.203.168a1.556 1.556 0 00-1.405 0l-5.999 3.027L22.801.168a1.556 1.556 0 00-1.404 0l-5.999 3.027L9.4.168C8.374-.351 7.127.429 7.127 1.585v16.572L.562 33.067a1.602 1.602 0 00-.135.644v72.704c0 .875.703 1.585 1.57 1.585h67.006c.868 0 1.57-.71 1.57-1.585V33.711c0-.222-.045-.44-.135-.644zM10.268 4.15l4.428 2.235c.442.223.963.223 1.405 0l5.998-3.027 5.998 3.027c.442.223.963.223 1.405 0L35.5 3.358l5.998 3.027c.442.223.963.223 1.405 0l5.998-3.027 5.998 3.027c.442.223.963.223 1.405 0l4.428-2.235v12.758H10.268V4.15zm-6.7 76.797H38.3l6.412 5.178-6.413 5.178H3.569V80.947zm40.308-45.651H54.03v69.534H3.568V94.474H38.85c.357 0 .703-.123.981-.348l8.376-6.763c.774-.625.774-1.85 0-2.475l-8.376-6.764a1.563 1.563 0 00-.98-.347H3.567V35.296h32.979c.867 0 1.57-.71 1.57-1.585 0-.876-.703-1.586-1.57-1.586H4.414l5.305-12.047h50.167l-5.304 12.047H43.876c-.868 0-1.57.71-1.57 1.586 0 .875.702 1.585 1.57 1.585zm23.557 69.534h-10.26V34.047l5.13-11.65 5.13 11.65v70.783z" fill="#A07B50"/><path d="M28.8 50.724c-7.101 0-12.878 5.831-12.878 12.998 0 6.551 4.814 10.462 12.877 10.462 8.064 0 12.878-3.911 12.878-10.462 0-7.167-5.777-12.998-12.878-12.998zm0 20.29c-3.637 0-9.737-.948-9.737-7.292 0-5.42 4.368-9.828 9.736-9.828 5.37 0 9.737 4.409 9.737 9.828 0 6.345-6.1 7.292-9.737 7.292zm-6.282-32.971c-3.21 0-5.34 4.007-5.34 6.658 0 2.972 2.395 5.39 5.34 5.39 2.944 0 5.34-2.418 5.34-5.39 0-2.65-2.13-6.658-5.34-6.658zm0 8.877a2.211 2.211 0 01-2.2-2.22c0-1.498 1.254-3.487 2.2-3.487.945 0 2.198 1.988 2.198 3.488 0 1.223-.986 2.219-2.198 2.219zm12.563-8.877c-3.21 0-5.34 4.007-5.34 6.658 0 2.972 2.396 5.39 5.34 5.39s5.34-2.418 5.34-5.39c0-2.65-2.13-6.658-5.34-6.658zm0 8.877a2.211 2.211 0 01-2.199-2.22c0-1.498 1.254-3.487 2.2-3.487.944 0 2.198 1.988 2.198 3.488a2.212 2.212 0 01-2.199 2.219zm10.051-1.268c-3.21 0-5.34 4.007-5.34 6.657 0 2.972 2.396 5.39 5.34 5.39s5.34-2.418 5.34-5.39c0-2.65-2.13-6.657-5.34-6.657zm0 8.877a2.212 2.212 0 01-2.199-2.22c0-1.5 1.254-3.487 2.199-3.487.945 0 2.199 1.988 2.199 3.487 0 1.224-.987 2.22-2.199 2.22zm-32.665-8.877c-3.21 0-5.34 4.007-5.34 6.657 0 2.972 2.395 5.39 5.34 5.39 2.944 0 5.34-2.418 5.34-5.39 0-2.65-2.13-6.657-5.34-6.657zm0 8.877a2.212 2.212 0 01-2.199-2.22c0-1.5 1.253-3.487 2.199-3.487.945 0 2.198 1.988 2.198 3.487 0 1.224-.986 2.22-2.198 2.22zm2.931 43.538h-6.7c-.868 0-1.57.71-1.57 1.585s.702 1.585 1.57 1.585h6.7c.868 0 1.57-.71 1.57-1.585 0-.876-.702-1.585-1.57-1.585zm21.777 0H22.1c-.867 0-1.57.71-1.57 1.585s.703 1.585 1.57 1.585h15.076c.868 0 1.57-.71 1.57-1.585 0-.876-.702-1.585-1.57-1.585zM20.424 84.54H8.698c-.868 0-1.57.71-1.57 1.585 0 .876.702 1.586 1.57 1.586h11.726c.867 0 1.57-.71 1.57-1.585 0-.876-.703-1.586-1.57-1.586zm15.076 0h-8.376c-.867 0-1.57.71-1.57 1.585 0 .876.703 1.586 1.57 1.586H35.5c.867 0 1.57-.71 1.57-1.585 0-.876-.702-1.586-1.57-1.586z" fill="#A07B50"/></svg>
